Numix/16/status/indicator-keyboard-Es-1.svg

<?xml version="1.0" encoding="UTF-8" standalone="no"?>
<svg
   xmlns:dc="http://purl.org/dc/elements/1.1/"
   xmlns:cc="http://creativecommons.org/ns#"
   xmlns:rdf="http://www.w3.org/1999/02/22-rdf-syntax-ns#"
   xmlns:svg="http://www.w3.org/2000/svg"
   xmlns="http://www.w3.org/2000/svg"
   xmlns:sodipodi="http://sodipodi.sourceforge.net/DTD/sodipodi-0.dtd"
   xmlns:inkscape="http://www.inkscape.org/namespaces/inkscape"
   viewBox="0 0 16 16"
   id="svg2"
   version="1.1"
   inkscape:version="0.91 r13725"
   sodipodi:docname="indicator-keyboard-Es-1.svg">
  <metadata
     id="metadata14">
    <rdf:RDF>
      <cc:Work
         rdf:about="">
        <dc:format>image/svg+xml</dc:format>
        <dc:type
           rdf:resource="http://purl.org/dc/dcmitype/StillImage" />
      </cc:Work>
    </rdf:RDF>
  </metadata>
  <defs
     id="defs12" />
  <sodipodi:namedview
     pagecolor="#ffffff"
     bordercolor="#666666"
     borderopacity="1"
     objecttolerance="10"
     gridtolerance="10"
     guidetolerance="10"
     inkscape:pageopacity="0"
     inkscape:pageshadow="2"
     inkscape:window-width="640"
     inkscape:window-height="480"
     id="namedview10"
     showgrid="false"
     inkscape:zoom="14.75"
     inkscape:cx="8"
     inkscape:cy="8"
     inkscape:window-x="65"
     inkscape:window-y="24"
     inkscape:window-maximized="0"
     inkscape:current-layer="svg2" />
  <path
     style="fill:#ececec;fill-opacity:1"
     d="M 1.5996094 0 C 0.71320937 2.9605947e-16 0 0.71320937 0 1.5996094 L 0 14.400391 C 2.9605947e-16 15.286791 0.71320937 16 1.5996094 16 L 14.400391 16 C 15.286791 16 16 15.286791 16 14.400391 L 16 1.5996094 C 16 0.71320937 15.286791 0 14.400391 0 L 1.5996094 0 z M 2.9511719 4.859375 L 6.5507812 4.859375 L 6.5507812 5.390625 L 3.5644531 5.390625 L 3.5644531 7.5585938 L 6.2285156 7.5585938 L 6.2285156 8.0800781 L 3.5644531 8.0800781 L 3.5644531 10.564453 L 6.7851562 10.564453 L 6.7851562 11.095703 L 2.9511719 11.095703 L 2.9511719 4.859375 z M 9.1679688 6.3359375 C 9.4859688 6.3359375 9.7471719 6.3620156 9.9511719 6.4160156 C 10.161172 6.4700156 10.308578 6.5185469 10.392578 6.5605469 L 10.255859 7.0820312 C 10.183859 7.0460313 10.062672 6.9975 9.8886719 6.9375 C 9.7206719 6.8775 9.470625 6.8476563 9.140625 6.8476562 C 9.008625 6.8476562 8.8836719 6.8625781 8.7636719 6.8925781 C 8.6496719 6.9165781 8.5470313 6.9595312 8.4570312 7.0195312 C 8.3670312 7.0735313 8.2942344 7.144375 8.2402344 7.234375 C 8.1862344 7.318375 8.1601563 7.4247812 8.1601562 7.5507812 C 8.1601562 7.6767813 8.1844219 7.7830469 8.2324219 7.8730469 C 8.2804219 7.9630469 8.3494531 8.0451875 8.4394531 8.1171875 C 8.5354531 8.1831875 8.64925 8.2466406 8.78125 8.3066406 C 8.91925 8.3666406 9.0740469 8.4319063 9.2480469 8.5039062 C 9.4280469 8.5759062 9.5997188 8.6505156 9.7617188 8.7285156 C 9.9297188 8.8005156 10.077125 8.8900469 10.203125 8.9980469 C 10.329125 9.1000469 10.429813 9.2269531 10.507812 9.3769531 C 10.585813 9.5209531 10.625 9.7037812 10.625 9.9257812 C 10.625 10.345781 10.466438 10.664859 10.148438 10.880859 C 9.8364375 11.096859 9.4073281 11.203125 8.8613281 11.203125 C 8.4533281 11.203125 8.1417812 11.167703 7.9257812 11.095703 C 7.7097812 11.029703 7.5661406 10.979359 7.4941406 10.943359 L 7.6464844 10.412109 C 7.6644844 10.424109 7.7036719 10.444609 7.7636719 10.474609 C 7.8236719 10.498609 7.9038594 10.528453 8.0058594 10.564453 C 8.1078594 10.594453 8.2291875 10.622484 8.3671875 10.646484 C 8.5111875 10.670484 8.6753281 10.681641 8.8613281 10.681641 C 9.1973281 10.681641 9.4734531 10.627531 9.6894531 10.519531 C 9.9114532 10.405531 10.023438 10.217125 10.023438 9.953125 C 10.023438 9.827125 10.000984 9.7189062 9.9589844 9.6289062 C 9.9229844 9.5389062 9.8614844 9.4587188 9.7714844 9.3867188 C 9.6814844 9.3147188 9.5601562 9.2456875 9.4101562 9.1796875 C 9.2661563 9.1136875 9.0870937 9.0353125 8.8710938 8.9453125 C 8.6970938 8.8733125 8.531 8.8005156 8.375 8.7285156 C 8.219 8.6505156 8.0809375 8.56475 7.9609375 8.46875 C 7.8409375 8.36675 7.7458281 8.2454219 7.6738281 8.1074219 C 7.6018281 7.9694219 7.5664062 7.8015156 7.5664062 7.6035156 C 7.5664062 7.2255156 7.7062813 6.9195469 7.9882812 6.6855469 C 8.2762813 6.4515469 8.6699687 6.3359375 9.1679688 6.3359375 z M 12.779297 8.8417969 L 13.048828 8.8417969 L 13.048828 12.896484 L 12.667969 12.896484 L 12.667969 9.421875 C 12.625069 9.468675 12.568247 9.5157063 12.498047 9.5664062 C 12.431747 9.6171063 12.355331 9.66805 12.269531 9.71875 C 12.183731 9.76555 12.095553 9.812575 12.001953 9.859375 C 11.908353 9.902275 11.814303 9.9375437 11.720703 9.9648438 L 11.609375 9.671875 C 11.843375 9.5899751 12.051075 9.4880813 12.234375 9.3632812 C 12.417675 9.2345813 12.599897 9.0601969 12.779297 8.8417969 z "
     id="path4" />
</svg>

<svg xmlns="http://www.w3.org/2000/svg" viewBox="0 0 16 16">
 <path d="m 1.6 0 c -0.886 0 -1.6 0.713 -1.6 1.6 l 0 12.801 c 0 0.886 0.713 1.6 1.6 1.6 l 12.801 0 c 0.886 0 1.6 -0.713 1.6 -1.6 l 0 -12.801 c 0 -0.886 -0.713 -1.6 -1.6 -1.6 l -12.801 0 z m 1.352 4.859 l 3.6 0 l 0 0.531 l -2.986 0 l 0 2.168 l 2.664 0 l 0 0.521 l -2.664 0 l 0 2.484 l 3.221 0 l 0 0.531 l -3.834 0 l 0 -6.236 z m 6.217 1.477 c 0.318 0 0.579 0.026 0.783 0.08 c 0.21 0.054 0.357 0.103 0.441 0.145 l -0.137 0.521 c -0.072 -0.036 -0.193 -0.085 -0.367 -0.145 c -0.168 -0.06 -0.418 -0.09 -0.748 -0.09 c -0.132 0 -0.257 0.015 -0.377 0.045 c -0.114 0.024 -0.217 0.067 -0.307 0.127 c -0.09 0.054 -0.163 0.125 -0.217 0.215 c -0.054 0.084 -0.08 0.19 -0.08 0.316 c 0 0.126 0.024 0.232 0.072 0.322 c 0.048 0.09 0.117 0.172 0.207 0.244 c 0.096 0.066 0.21 0.129 0.342 0.189 c 0.138 0.06 0.293 0.125 0.467 0.197 c 0.18 0.072 0.352 0.147 0.514 0.225 c 0.168 0.072 0.315 0.162 0.441 0.27 c 0.126 0.102 0.227 0.229 0.305 0.379 c 0.078 0.144 0.117 0.327 0.117 0.549 c 0 0.42 -0.159 0.739 -0.477 0.955 c -0.312 0.216 -0.741 0.322 -1.287 0.322 c -0.408 0 -0.72 -0.035 -0.936 -0.107 c -0.216 -0.066 -0.36 -0.116 -0.432 -0.152 l 0.152 -0.531 c 0.018 0.012 0.057 0.033 0.117 0.063 c 0.06 0.024 0.14 0.054 0.242 0.09 c 0.102 0.03 0.223 0.058 0.361 0.082 c 0.144 0.024 0.308 0.035 0.494 0.035 c 0.336 0 0.612 -0.054 0.828 -0.162 c 0.222 -0.114 0.334 -0.302 0.334 -0.566 c 0 -0.126 -0.022 -0.234 -0.064 -0.324 c -0.036 -0.09 -0.098 -0.17 -0.188 -0.242 c -0.09 -0.072 -0.211 -0.141 -0.361 -0.207 c -0.144 -0.066 -0.323 -0.144 -0.539 -0.234 c -0.174 -0.072 -0.34 -0.145 -0.496 -0.217 c -0.156 -0.078 -0.294 -0.164 -0.414 -0.26 c -0.12 -0.102 -0.215 -0.223 -0.287 -0.361 c -0.072 -0.138 -0.107 -0.306 -0.107 -0.504 c 0 -0.378 0.14 -0.684 0.422 -0.918 c 0.288 -0.234 0.682 -0.35 1.18 -0.35 z m 3.611 2.506 l 0.27 0 l 0 4.055 l -0.381 0 l 0 -3.475 c -0.043 0.047 -0.1 0.094 -0.17 0.145 c -0.066 0.051 -0.143 0.102 -0.229 0.152 c -0.086 0.047 -0.174 0.094 -0.268 0.141 c -0.094 0.043 -0.188 0.078 -0.281 0.105 l -0.111 -0.293 c 0.234 -0.082 0.442 -0.184 0.625 -0.309 c 0.183 -0.129 0.366 -0.303 0.545 -0.521 z" style="fill:#ececec;fill-opacity:1"/>
</svg>
